src/icons/icons_set_04/019-oeuil.svg

<svg height="50" viewBox="0 0 50 50" width="50" xmlns="http://www.w3.org/2000/svg"><path d="m13.583614 6.59732985c-1.0022168 1.55804565-1.583614 3.41246155-1.583614 5.40267015 0 5.5228475 4.4771525 10 10 10s10-4.4771525 10-10c0-1.9930438-.5830549-3.84990777-1.5878998-5.40932705-2.5859808-1.20378076-5.4398533-1.86124887-8.4071002-1.86124887-2.9727119 0-5.8316315.65989218-8.421386 1.86790577zm4.416386 8.40267015c-2.209139 0-4-1.790861-4-4s1.790861-4 4-4 4 1.790861 4 4-1.790861 4-4 4zm4.005-14.27057592c9.2700394 0 17.6019272 5.33929342 21.7281148 13.63286292.2791604.5611079.2791604 1.2206276 0 1.7817356-4.1261876 8.2935694-12.4580754 13.6328628-21.7281148 13.6328628s-17.60192718-5.3392934-21.72811478-13.6328628c-.27916045-.561108-.27916045-1.2206277 0-1.7817356 4.1261876-8.2935695 12.45807538-13.63286292 21.72811478-13.63286292z" transform="translate(2.995 9.746845)"/></svg>

<?xml version="1.0" encoding="UTF-8"?>
<svg width="50px" height="50px" viewBox="0 0 50 50" version="1.1" xmlns="http://www.w3.org/2000/svg" xmlns:xlink="http://www.w3.org/1999/xlink">
    <!-- Generator: Sketch 52.2 (67145) - http://www.bohemiancoding.com/sketch -->
    <title>019-oeuil</title>
    <desc>Created with Sketch.</desc>
    <g id="019-oeuil" stroke="none" stroke-width="1" fill="none" fill-rule="evenodd">
        <g id="Group" transform="translate(2.995000, 9.746845)" fill="#000000" fill-rule="nonzero">
            <g id="028-oeuil">
                <g id="ICONSET-01">
                    <g id="028-oeuil">
                        <path d="M13.583614,6.59732985 C12.5813972,8.1553755 12,10.0097914 12,12 C12,17.5228475 16.4771525,22 22,22 C27.5228475,22 32,17.5228475 32,12 C32,10.0069562 31.4169451,8.15009223 30.4121002,6.59067295 C27.8261194,5.38689219 24.9722469,4.72942408 22.005,4.72942408 C19.0322881,4.72942408 16.1733685,5.38931626 13.583614,6.59732985 Z M18,15 C15.790861,15 14,13.209139 14,11 C14,8.790861 15.790861,7 18,7 C20.209139,7 22,8.790861 22,11 C22,13.209139 20.209139,15 18,15 Z M22.005,0.729424077 C31.2750394,0.729424077 39.6069272,6.0687175 43.7331148,14.362287 C44.0122752,14.9233949 44.0122752,15.5829146 43.7331148,16.1440226 C39.6069272,24.437592 31.2750394,29.7768854 22.005,29.7768854 C12.7349606,29.7768854 4.40307282,24.437592 0.27688522,16.1440226 C-0.00227523202,15.5829146 -0.00227523202,14.9233949 0.27688522,14.362287 C4.40307282,6.0687175 12.7349606,0.729424077 22.005,0.729424077 Z" id="Combined-Shape"></path>
                    </g>
                </g>
            </g>
        </g>
    </g>
</svg>
